wp-content/plugins/simple-social-buttons/assets/images/twitter.svg

<svg width="90" height="28" viewBox="0 0 90 28" fill="none" xmlns="http://www.w3.org/2000/svg">
<g clip-path="url(#clip0_3209_3221)">
<mask id="mask0_3209_3221" style="mask-type:luminance" maskUnits="userSpaceOnUse" x="0" y="0" width="90" height="28">
<path d="M90 0H0V28H90V0Z" fill="white"/>
</mask>
<g mask="url(#mask0_3209_3221)">
<path fill-rule="evenodd" clip-rule="evenodd" d="M3 0H87C88.7 0 90 1.3 90 3V25C90 26.7 88.7 28 87 28H3C1.3 28 0 26.7 0 25V3C0 1.3 1.3 0 3 0Z" fill="#0F1419"/>
<path d="M40.3 19.0999H39.1V10.0999H36V9.09985H43.5V10.0999H40.3V19.0999Z" fill="white"/>
<path d="M50.9002 19.0999L49.5 14.6999C49.4 14.3999 49.3 13.7999 49 12.8999C48.8 13.6999 48.7 14.2999 48.5 14.6999L47.1 19.0999H45.8L43.8 11.5999H45C45.5 13.4999 45.9 14.8999 46.1 15.8999C46.4 16.8999 46.5 17.4999 46.5 17.8999H46.6C46.6 17.5999 46.7 17.2999 46.8 16.8999C46.9 16.4999 47 16.1999 47.1 15.8999L48.5 11.5999H49.7001L51 15.8999C51.3 16.6999 51.4 17.2999 51.5 17.8999H51.6C51.6 17.6999 51.7001 17.4999 51.7001 17.0999C51.8001 16.7999 52.3 14.8999 53.1 11.5999H54.3L52.2001 19.0999H50.9002Z" fill="white"/>
<path d="M55.6001 9.49995C55.6001 9.19995 55.7001 8.99995 55.8001 8.89995C55.9001 8.79995 56.1001 8.69995 56.3001 8.69995C56.5001 8.69995 56.6001 8.79995 56.8001 8.89995C57.0001 8.99995 57.0001 9.29995 57.0001 9.49995C57.0001 9.69995 56.9001 9.89995 56.8001 10.1C56.7001 10.2 56.5001 10.3 56.3001 10.3C56.1001 10.3 55.9001 10.2 55.8001 10.1C55.7001 9.99995 55.6001 9.79995 55.6001 9.49995ZM56.8001 19.1H55.7001V11.6H56.8001V19.1Z" fill="white"/>
<path d="M61.7001 18.3C61.9001 18.3 62.1 18.3 62.3 18.3C62.5 18.3 62.6001 18.2 62.7001 18.2V19C62.6001 19.1 62.4001 19.1 62.2001 19.1C62.0001 19.1 61.7 19.2 61.6 19.2C60.2 19.2 59.4002 18.4 59.4002 16.9V12.4H58.3V11.9L59.4002 11.4L59.9002 9.80005H60.6V11.5H62.8V12.4H60.6V16.8C60.6 17.3 60.7002 17.6 60.9002 17.8C61.1002 18 61.3001 18.3 61.7001 18.3Z" fill="white"/>
<path d="M66.5998 18.3C66.7998 18.3 66.9998 18.3 67.1998 18.3C67.3998 18.3 67.4998 18.2 67.5998 18.2V19C67.4998 19.1 67.2998 19.1 67.0998 19.1C66.8998 19.1 66.6 19.2 66.5 19.2C65.1 19.2 64.3 18.4 64.3 16.9V12.4H63.2V11.9L64.3 11.4L64.8 9.80005H65.5V11.5H67.6998V12.4H65.5V16.8C65.5 17.3 65.6 17.6 65.8 17.8C66 18 66.1998 18.3 66.5998 18.3Z" fill="white"/>
<path d="M72.3 19.1999C71.2 19.1999 70.3 18.8999 69.7 18.1999C69.1 17.4999 68.7 16.5999 68.7 15.3999C68.7 14.1999 69 13.1999 69.6 12.4999C70.2 11.7999 71 11.3999 72 11.3999C72.9 11.3999 73.7 11.6999 74.2 12.2999C74.7 12.8999 75 13.6999 75 14.6999V15.3999H69.8C69.8 16.2999 70 16.8999 70.5 17.3999C70.9 17.8999 71.5 18.0999 72.3 18.0999C73.1 18.0999 73.9 17.8999 74.7 17.5999V18.5999C74.3 18.7999 73.9 18.8999 73.6 18.9999C73.2 19.1999 72.8 19.1999 72.3 19.1999ZM72 12.3999C71.4 12.3999 70.9 12.5999 70.6 12.9999C70.2 13.3999 70 13.8999 70 14.5999H73.9C73.9 13.8999 73.7 13.2999 73.4 12.9999C73 12.5999 72.6 12.3999 72 12.3999Z" fill="white"/>
<path d="M80.4 11.3999C80.7 11.3999 81 11.3999 81.3 11.4999L81.1 12.5999C80.8 12.4999 80.5 12.4999 80.3 12.4999C79.7 12.4999 79.2 12.6999 78.7 13.1999C78.3 13.6999 78.1 14.2999 78.1 14.9999V18.9999H77V11.4999H77.9L78 12.8999H78.1C78.4 12.3999 78.7 11.9999 79.1 11.7999C79.5 11.5999 79.9 11.3999 80.4 11.3999Z" fill="white"/>
<path d="M28 0H27V28H28V0Z" fill="#54595E"/>
<path d="M10.8182 8H7L11.5055 14.0577L7.24545 19H8.69091L12.1753 14.9581L15.1818 19H19L14.3047 12.6871L18.3455 8H16.9L13.6349 11.7873L10.8182 8ZM15.7273 17.9L9.18182 9.1H10.2727L16.8182 17.9H15.7273Z" fill="white"/>
</g>
</g>
<defs>
<clipPath id="clip0_3209_3221">
<rect width="90" height="28" fill="white"/>
</clipPath>
</defs>
</svg>

<?xml version="1.0" encoding="utf-8"?>
<!-- Generator: Adobe Illustrator 19.0.0, SVG Export Plug-In . SVG Version: 6.00 Build 0)  -->
<svg version="1.1" id="Layer_1" xmlns="http://www.w3.org/2000/svg" xmlns:xlink="http://www.w3.org/1999/xlink" x="0px" y="0px"
	 width="90px" height="28px" viewBox="0 0 90 28" style="enable-background:new 0 0 90 28;" xml:space="preserve">
<style type="text/css">
	.st0{fill-rule:evenodd;clip-rule:evenodd;fill:#429CD6;}
	.st1{fill:#FFFFFF;}
	.st2{fill-rule:evenodd;clip-rule:evenodd;fill:#0A77BD;}
</style>
<g id="XMLID_1_">
	<path id="XMLID_24_" class="st0" d="M3,0h84c1.7,0,3,1.3,3,3v22c0,1.7-1.3,3-3,3H3c-1.7,0-3-1.3-3-3V3C0,1.3,1.3,0,3,0z"/>
	<g id="XMLID_18_">
		<path id="XMLID_39_" class="st1" d="M40.3,19.1h-1.2v-9H36v-1h7.5v1h-3.2V19.1z"/>
		<path id="XMLID_53_" class="st1" d="M50.9,19.1l-1.4-4.4c-0.1-0.3-0.2-0.9-0.5-1.8H49c-0.2,0.8-0.3,1.4-0.5,1.8l-1.4,4.4h-1.3
			l-2-7.5H45c0.5,1.9,0.9,3.3,1.1,4.3c0.3,1,0.4,1.6,0.4,2h0.1c0-0.3,0.1-0.6,0.2-1c0.1-0.4,0.2-0.7,0.3-1l1.4-4.3h1.2l1.3,4.3
			c0.3,0.8,0.4,1.4,0.5,2h0.1c0-0.2,0.1-0.4,0.1-0.8c0.1-0.3,0.6-2.2,1.4-5.5h1.2l-2.1,7.5H50.9z"/>
		<path id="XMLID_155_" class="st1" d="M55.6,9.5c0-0.3,0.1-0.5,0.2-0.6c0.1-0.1,0.3-0.2,0.5-0.2c0.2,0,0.3,0.1,0.5,0.2
			S57,9.3,57,9.5s-0.1,0.4-0.2,0.6c-0.1,0.1-0.3,0.2-0.5,0.2c-0.2,0-0.4-0.1-0.5-0.2C55.7,10,55.6,9.8,55.6,9.5z M56.8,19.1h-1.1
			v-7.5h1.1V19.1z"/>
		<path id="XMLID_158_" class="st1" d="M61.7,18.3c0.2,0,0.4,0,0.6,0c0.2,0,0.3-0.1,0.4-0.1V19c-0.1,0.1-0.3,0.1-0.5,0.1
			c-0.2,0-0.5,0.1-0.6,0.1c-1.4,0-2.2-0.8-2.2-2.3v-4.5h-1.1v-0.5l1.1-0.5l0.5-1.6h0.7v1.7h2.2v0.9h-2.2v4.4c0,0.5,0.1,0.8,0.3,1
			S61.3,18.3,61.7,18.3z"/>
		<path id="XMLID_160_" class="st1" d="M66.6,18.3c0.2,0,0.4,0,0.6,0c0.2,0,0.3-0.1,0.4-0.1V19c-0.1,0.1-0.3,0.1-0.5,0.1
			c-0.2,0-0.5,0.1-0.6,0.1c-1.4,0-2.2-0.8-2.2-2.3v-4.5h-1.1v-0.5l1.1-0.5l0.5-1.6h0.7v1.7h2.2v0.9h-2.2v4.4c0,0.5,0.1,0.8,0.3,1
			S66.2,18.3,66.6,18.3z"/>
		<path id="XMLID_162_" class="st1" d="M72.3,19.2c-1.1,0-2-0.3-2.6-1c-0.6-0.7-1-1.6-1-2.8c0-1.2,0.3-2.2,0.9-2.9
			c0.6-0.7,1.4-1.1,2.4-1.1c0.9,0,1.7,0.3,2.2,0.9c0.5,0.6,0.8,1.4,0.8,2.4v0.7h-5.2c0,0.9,0.2,1.5,0.7,2c0.4,0.5,1,0.7,1.8,0.7
			c0.8,0,1.6-0.2,2.4-0.5v1c-0.4,0.2-0.8,0.3-1.1,0.4C73.2,19.2,72.8,19.2,72.3,19.2z M72,12.4c-0.6,0-1.1,0.2-1.4,0.6
			c-0.4,0.4-0.6,0.9-0.6,1.6h3.9c0-0.7-0.2-1.3-0.5-1.6C73,12.6,72.6,12.4,72,12.4z"/>
		<path id="XMLID_165_" class="st1" d="M80.4,11.4c0.3,0,0.6,0,0.9,0.1l-0.2,1.1c-0.3-0.1-0.6-0.1-0.8-0.1c-0.6,0-1.1,0.2-1.6,0.7
			c-0.4,0.5-0.6,1.1-0.6,1.8v4H77v-7.5h0.9l0.1,1.4h0.1c0.3-0.5,0.6-0.9,1-1.1S79.9,11.4,80.4,11.4z"/>
	</g>
	<g id="XMLID_3_">
		<path id="XMLID_4_" class="st1" d="M7,18.1c1.4,0.1,2.7-0.2,3.9-1.1c-1.2-0.1-2-0.7-2.5-1.9c0.4,0.1,0.8,0.1,1.2-0.1
			c-0.6-0.1-1.1-0.5-1.5-1c-0.4-0.5-0.6-1.1-0.6-1.7c0.4,0.2,0.8,0.3,1.2,0.3c-0.6-0.4-1-1-1.1-1.6c-0.2-0.7-0.1-1.3,0.3-1.9
			c1.4,1.7,3.3,2.6,5.5,2.8c0-0.2,0-0.3,0-0.5c0-0.6,0.1-1.2,0.4-1.6c0.6-0.9,1.5-1.3,2.6-1.2c0.6,0.1,1.1,0.3,1.5,0.7
			c0.1,0.1,0.1,0.1,0.2,0.1c0.5-0.1,1-0.3,1.4-0.5c0,0,0.1,0,0.1-0.1c-0.1,0.3-0.2,0.6-0.4,0.8c-0.2,0.2-0.4,0.4-0.7,0.6
			c0.5,0,1-0.2,1.4-0.4c0,0,0,0,0,0c-0.2,0.3-0.4,0.5-0.7,0.8c-0.2,0.2-0.4,0.4-0.6,0.5c0,0-0.1,0.1-0.1,0.1c0,1.4-0.3,2.7-0.9,3.9
			c-0.8,1.5-2,2.7-3.6,3.4c-1.1,0.5-2.2,0.6-3.4,0.6c-1,0-1.9-0.3-2.8-0.7C7.6,18.5,7.3,18.3,7,18.1C7,18.1,7,18.1,7,18.1z"/>
	</g>
	<rect id="XMLID_2_" x="27" y="0" class="st2" width="1" height="28"/>
</g>
</svg>
